usr/share/icons/biglinux-icons-material-dark/22/actions/color-mode-invert-text.svg

<!DOCTYPE svg>
<svg version="1.1" viewBox="0 0 22 22" xmlns="http://www.w3.org/2000/svg">
    <defs>
        <style id="current-color-scheme" type="text/css">
            .ColorScheme-Text {
                color:#dedede;
            }
        </style>
    </defs>
    <path class="ColorScheme-Text" style="fill:currentColor; fill-opacity:1; stroke:none" d="M 11 3 L 11 4 L 12.1797 4 C 13.2954 7.23942 14.4234 10.4748 15.5313 13.7168 C 16.0184 15.1554 16.5754 16.5706 17.0898 18 L 15.3418 18 C 14.8001 16.5208 14.2585 15.0417 13.7168 13.5625 L 11 13.5625 L 11 19 L 19 19 L 19 3 L 11 3 Z M 11 13.5625 L 11 12.2813 L 8.89453 12.2813 C 9.59636 10.2676 10.2982 8.25391 11 6.24023 L 11 4 L 9.91016 4 C 8.78659 7.2696 7.64125 10.5326 6.53125 13.8066 C 6.04314 15.2121 5.50683 16.6009 5 18 L 6.74805 18 C 7.28972 16.5208 7.83138 15.0417 8.37305 13.5625 L 11 13.5625 Z M 11 6.24023 L 11 12.2813 L 13.1953 12.2813 C 12.4785 10.2246 11.7617 8.16797 11.0449 6.11133 C 11.0299 6.1543 11.015 6.19727 11 6.24023 L 11 6.24023 Z"/>
</svg>

<svg xmlns="http://www.w3.org/2000/svg" viewBox="0 0 22 22">
<defs>
<style id="current-color-scheme" type="text/css">
.ColorScheme-Text{color:#dedede}
</style>
</defs>
<path d="M11 3v1h1.18c1.115 3.24 2.243 6.475 3.351 9.717.487 1.438 1.044 2.854 1.559 4.283h-1.748l-1.625-4.437H11V19h8V3zm0 10.563V12.28H8.895L11 6.241V4H9.91c-1.123 3.27-2.269 6.533-3.379 9.807C6.043 15.212 5.507 16.6 5 18h1.748l1.625-4.437zm0-7.323v6.041h2.195l-2.15-6.17z" class="ColorScheme-Text" style="fill:currentColor;fill-opacity:1;stroke:none"/>
</svg>
